src/topics/icons/glimmerjs.svg

<?xml version="1.0" encoding="UTF-8"?>
<svg width="256px" height="256px" viewBox="0 0 256 256" version="1.1" xmlns="http://www.w3.org/2000/svg" xmlns:xlink="http://www.w3.org/1999/xlink" preserveAspectRatio="xMidYMid">
	<g>
		<path d="M256.0003,128.0001 C256.0003,198.6921 198.6923,256.0001 128.0003,256.0001 C57.3073,256.0001 0.0003,198.6921 0.0003,128.0001 C0.0003,57.3081 57.3073,0.0001 128.0003,0.0001 C198.6923,0.0001 256.0003,57.3081 256.0003,128.0001" fill="#F8835A"></path>
		<path d="M78.6297,140.3693 C75.7657,140.3693 72.8987,139.2993 70.6787,137.1483 C66.1457,132.7563 66.0307,125.5213 70.4227,120.9883 L147.5667,41.3693 C151.9577,36.8363 159.1927,36.7213 163.7267,41.1133 C168.2587,45.5053 168.3737,52.7413 163.9817,57.2743 L86.8387,136.8933 C84.5977,139.2063 81.6147,140.3693 78.6297,140.3693 Z M128.9407,143.4059 C126.0857,143.4059 123.2267,142.3399 121.0137,140.1959 C116.4947,135.8169 116.3807,128.6039 120.7597,124.0849 L181.6867,61.2009 C186.0657,56.6819 193.2777,56.5689 197.7977,60.9469 C202.3167,65.3249 202.4307,72.5379 198.0527,77.0569 L137.1247,139.9409 C134.8897,142.2469 131.9167,143.4059 128.9407,143.4059 Z M104.2498,222.692 C101.3848,222.692 98.5188,221.623 96.2988,219.471 C91.7658,215.08 91.6508,207.844 96.0428,203.311 L202.6108,93.322 C207.0018,88.79 214.2378,88.675 218.7708,93.067 C223.3048,97.459 223.4188,104.694 219.0258,109.228 L112.4588,219.216 C110.2178,221.529 107.2348,222.692 104.2498,222.692 Z M70.8104,203.2511 C67.9454,203.2511 65.0794,202.1811 62.8594,200.0301 C58.3264,195.6381 58.2114,188.4021 62.6034,183.8701 L91.6564,153.8841 C96.0494,149.3511 103.2844,149.2361 107.8174,153.6281 C112.3504,158.0211 112.4644,165.2561 108.0724,169.7891 L79.0194,199.7751 C76.7784,202.0881 73.7954,203.2511 70.8104,203.2511 Z M47.6312,116.4879 C44.7662,116.4879 41.8992,115.4179 39.6792,113.2669 C35.1462,108.8749 35.0322,101.6399 39.4242,97.1069 L68.4772,67.1209 C72.8702,62.5879 80.1052,62.4739 84.6382,66.8659 C89.1712,71.2579 89.2852,78.4929 84.8932,83.0269 L55.8402,113.0119 C53.5982,115.3249 50.6162,116.4879 47.6312,116.4879 Z M197.0643,181.7829 C194.2003,181.7829 191.3333,180.7129 189.1133,178.5619 C184.5803,174.1699 184.4653,166.9349 188.8573,162.4019 L202.6113,148.2069 C207.0023,143.6749 214.2383,143.5579 218.7713,147.9519 C223.3043,152.3439 223.4183,159.5789 219.0263,164.1119 L205.2733,178.3069 C203.0323,180.6199 200.0493,181.7829 197.0643,181.7829 Z M170.2835,210.1212 C170.2835,216.4332 165.1665,221.5492 158.8545,221.5492 C152.5435,221.5492 147.4265,216.4332 147.4265,210.1212 C147.4265,203.8092 152.5435,198.6922 158.8545,198.6922 C165.1665,198.6922 170.2835,203.8092 170.2835,210.1212 Z M61.0609,158.9254 C61.0609,165.2374 55.9439,170.3544 49.6319,170.3544 C43.3199,170.3544 38.2039,165.2374 38.2039,158.9254 C38.2039,152.6134 43.3199,147.4974 49.6319,147.4974 C55.9439,147.4974 61.0609,152.6134 61.0609,158.9254 Z M115.345,46.7829 C115.345,53.0949 110.228,58.2109 103.917,58.2109 C97.605,58.2109 92.488,53.0949 92.488,46.7829 C92.488,40.4709 97.605,35.3539 103.917,35.3539 C110.228,35.3539 115.345,40.4709 115.345,46.7829 Z" fill="#FFFFFF"></path>
	</g>
</svg>

<svg height="256" preserveAspectRatio="xMidYMid" viewBox="0 0 256 256" width="256" xmlns="http://www.w3.org/2000/svg"><path d="m256.0003 128.0001c0 70.692-57.308 128-128 128-70.693 0-128-57.308-128-128s57.307-128 128-128c70.692 0 128 57.308 128 128" fill="#f8835a"/><path d="m78.6297 140.3693c-2.864 0-5.731-1.07-7.951-3.221-4.533-4.392-4.648-11.627-.256-16.16l77.144-79.619c4.391-4.533 11.626-4.648 16.16-.256 4.532 4.392 4.647 11.628.255 16.161l-77.143 79.619c-2.241 2.313-5.224 3.476-8.209 3.476zm50.311 3.0366c-2.855 0-5.714-1.066-7.927-3.21-4.519-4.379-4.633-11.592-.254-16.111l60.927-62.884c4.379-4.519 11.591-4.632 16.111-.254 4.519 4.378 4.633 11.591.255 16.11l-60.928 62.884c-2.235 2.306-5.208 3.465-8.184 3.465zm-24.6909 79.2861c-2.865 0-5.731-1.069-7.951-3.221-4.533-4.391-4.648-11.627-.256-16.16l106.568-109.989c4.391-4.532 11.627-4.647 16.16-.255 4.534 4.392 4.648 11.627.255 16.161l-106.567 109.988c-2.241 2.313-5.224 3.476-8.209 3.476zm-33.4394-19.4409c-2.865 0-5.731-1.07-7.951-3.221-4.533-4.392-4.648-11.628-.256-16.16l29.053-29.986c4.393-4.533 11.628-4.648 16.161-.256 4.533 4.393 4.647 11.628.255 16.161l-29.053 29.986c-2.241 2.313-5.224 3.476-8.209 3.476zm-23.1792-86.7632c-2.865 0-5.732-1.07-7.952-3.221-4.533-4.392-4.647-11.627-.255-16.16l29.053-29.986c4.393-4.533 11.628-4.647 16.161-.255s4.647 11.627.255 16.161l-29.053 29.985c-2.242 2.313-5.224 3.476-8.209 3.476zm149.4331 65.295c-2.864 0-5.731-1.07-7.951-3.221-4.533-4.392-4.648-11.627-.256-16.16l13.754-14.195c4.391-4.532 11.627-4.649 16.16-.255 4.533 4.392 4.647 11.627.255 16.16l-13.753 14.195c-2.241 2.313-5.224 3.476-8.209 3.476zm-26.7808 28.3383c0 6.312-5.117 11.428-11.429 11.428-6.311 0-11.428-5.116-11.428-11.428s5.117-11.429 11.428-11.429c6.312 0 11.429 5.117 11.429 11.429zm-109.2226-51.1958c0 6.312-5.117 11.429-11.429 11.429s-11.428-5.117-11.428-11.429 5.116-11.428 11.428-11.428 11.429 5.116 11.429 11.428zm54.2841-112.1425c0 6.312-5.117 11.428-11.428 11.428-6.312 0-11.429-5.116-11.429-11.428s5.117-11.429 11.429-11.429c6.311 0 11.428 5.117 11.428 11.429z" fill="#fff"/></svg>
